X:1
T:Polska i A-dur efter Ola i Skarup (2)
M:3/4
L:1/8
O:Skarup, Blekinge
R:Slängpolska
N:Från spelboken Dansmusikbok för Violino Primo, Skarup den 11 maj 1846
Z:Andy Davey 2018
K:A
|: Ac e/f/e/d/ c/d/c/B/ | A/B/c/d/ e/f/e/d/ c/d/c/B/ | Aa af fg | a/g/a/f/ fe e2 :| 
|:  a/g/a/b/ c'a ae | d/c/d/e/ fd dc | d/c/d/f/ ec Ac | e/c/d/B/ BA A2 :|

